X:1
T:Title
%%score { ( 1 3 ) | ( 2 4 ) }
L:1/8
M:4/4
K:D
V:1 treble nm="Grand Piano"
V:3 treble 
V:2 bass 
V:4 bass 
V:1
 z4 z2[Q:1/4=128] [FA]2 | [DF]2 [EG]2 [FA]2 [FA]2 | [GB]2 [FA]2 [FA]2 [Fd]2 | %3
 [Ec]2 [Fd]2 [Ge]2 [Ec]2 |[M:3/4] d4 z2 |[M:1/4] [FA]2 |[M:4/4] [DF]2 [EG]2 [FA]2 [FA]2 | %7
 [GB]2 [FA]2 [FA]2 [Fd]2 | c2 B2 c3 B |[M:3/4] [A,CA]6 |[M:1/4] A2 |[M:4/4] c2 A2 A2 A2 | %12
 [Fd]2 [FA]2 [FA]2 [Fd]2 | [Ge]2 [Fd]2 [Ac]2 [CGB]2 |[M:3/4] [FA]6 |[M:1/4] [FA]2 | %16
[M:4/4] B2 B2 B2 B2 | [FA]2 [FA]2 [FA]2 [FA]2 |[M:2/4] G2 F2 | [EG]2 [FA]2 |[M:3/4] F6 | %21
[M:1/4] A2 |[M:4/4] c2 A2 A2 A2 | [Fd]2 [FA]2 [FA]2 [Fd]2 | [Ge]2 [Fd]2 [Ac]2 [CGB]2 | %25
[M:3/4] [FA]6 |[M:1/4] [FA]2 |[M:4/4] B2 B2 B2 B2 | [FA]2 [FA]2 [FA]2 [FA]2 |[M:2/4] G2 F2 | %30
 [EG]2 [CE]2 |[M:3/4] D6 |] %32
V:2
 z4 z2 [D,D]2 | [D,A,]2 [D,D]2 [D,D]2 [D,D]2 | [D,D]2 [D,D]2 [D,D]2 [D,A,]2 | %3
 [A,,A,]2 [A,,A,]2 [A,,A,]2 [A,,A,]2 |[M:3/4] A,4 z2 |[M:1/4] [D,D]2 | %6
[M:4/4] [D,A,]2 [D,D]2 [D,D]2 [D,D]2 | [D,D]2 [D,D]2 [D,D]2 [D,A,]2 | %8
 [E,A,E]2 [E,^G,D]2 [E,A,E]3 [E,G,D] |[M:3/4] A,,6 |[M:1/4] A,2 | %11
[M:4/4][K:treble] [A,G]2 [A,CG]2 [A,CG]2 [A,CG]2 | [D,D]2 [D,D]2 [D,D]2 [D,A,]2 | %13
 [A,,A,]2 [A,,A,]2 [A,,A,]2 A,,2 |[M:3/4] [D,D]6 |[M:1/4] [D,D]2 | %16
[M:4/4][K:treble] [G,DG]2 [G,DG]2 [G,DG]2 [G,DG]2 | [D,D]2 [D,D]2 [D,D]2 [D,D]2 | %18
[M:2/4] [A,E]2 [A,D]2 | [A,,A,]2 [A,,A,]2 |[M:3/4] [D,A,D]6 |[M:1/4] A,2 | %22
[M:4/4][K:treble] [A,G]2 [A,CG]2 [A,CG]2 [A,CG]2 | [D,D]2 [D,D]2 [D,D]2 [D,A,]2 | %24
 [A,,A,]2 [A,,A,]2 [A,,A,]2 A,,2 |[M:3/4] [D,D]6 |[M:1/4] [D,D]2 | %27
[M:4/4][K:treble] [G,DG]2 [G,DG]2 [G,DG]2 [G,DG]2 | [D,D]2 [D,D]2 [D,D]2 [D,D]2 | %29
[M:2/4] [A,E]2 [A,D]2 | [A,,A,]2 [G,,G,]2 |[M:3/4] [D,F,]6 |] %32
V:3
 x8 | x8 | x8 | x8 |[M:3/4] F4- [DFA]2 |[M:1/4] x2 |[M:4/4] x8 | x8 | x8 |[M:3/4] x6 |[M:1/4] x2 | %11
[M:4/4] x8 | x8 | x8 |[M:3/4] x6 |[M:1/4] x2 |[M:4/4] x8 | x8 |[M:2/4] x4 | x4 |[M:3/4] x6 | %21
[M:1/4] x2 |[M:4/4] x8 | x8 | x8 |[M:3/4] x6 |[M:1/4] x2 |[M:4/4] x8 | x8 |[M:2/4] x4 | x4 | %31
[M:3/4] x6 |] %32
V:4
 x8 | x8 | x8 | x8 |[M:3/4] D,6 |[M:1/4] x2 |[M:4/4] x8 | x8 | x8 |[M:3/4] x6 |[M:1/4] x2 | %11
[M:4/4][K:treble] x8 | x8 | x8 |[M:3/4] x6 |[M:1/4] x2 |[M:4/4][K:treble] x8 | x8 |[M:2/4] x4 | %19
 x4 |[M:3/4] x6 |[M:1/4] x2 |[M:4/4][K:treble] x8 | x8 | x8 |[M:3/4] x6 |[M:1/4] x2 | %27
[M:4/4][K:treble] x8 | x8 |[M:2/4] x4 | x4 |[M:3/4] x6 |] %32

